src/pos-icons/vanish.svg

<svg height="24" viewBox="0 0 24 24" width="24" xmlns="http://www.w3.org/2000/svg"><path d="m16 13v-2h5v2zm-1.17-5.24 2.83-2.83 1.41 1.41-2.83 2.83zm-3.83 8.24h2v5h-2zm0-13h2v5h-2zm-6.07 14.66 2.83-2.83 1.41 1.41-2.83 2.83zm0-11.32 1.41-1.41 2.83 2.83-1.41 1.41zm3.07 6.66h-5v-2h5zm11.07 4.66-1.41 1.41-2.83-2.83 1.41-1.41z"/></svg>

<?xml version="1.0" encoding="UTF-8"?><!DOCTYPE svg PUBLIC "-//W3C//DTD SVG 1.1//EN" "http://www.w3.org/Graphics/SVG/1.1/DTD/svg11.dtd"><svg xmlns="http://www.w3.org/2000/svg" xmlns:xlink="http://www.w3.org/1999/xlink" version="1.1" id="mdi-vanish" width="24" height="24" viewBox="0 0 24 24"><path d="M16,13V11H21V13H16M14.83,7.76L17.66,4.93L19.07,6.34L16.24,9.17L14.83,7.76M11,16H13V21H11V16M11,3H13V8H11V3M4.93,17.66L7.76,14.83L9.17,16.24L6.34,19.07L4.93,17.66M4.93,6.34L6.34,4.93L9.17,7.76L7.76,9.17L4.93,6.34M8,13H3V11H8V13M19.07,17.66L17.66,19.07L14.83,16.24L16.24,14.83L19.07,17.66Z" /></svg>
